!!!!SEGMENT: pl-kk--kk-i-387--012_anonim--deus-meus-exaudi-orationem.krn
!!!cenid: 18xx:1426
!!!COM: Anonim
!!!COM-rismID:
!!!CDT:
!!!CNT:
!!!OTL: Deus meus exaudi orationem
!!!PDT:
!!!AGN: Sacred
!!!SMS-siglum: PL-Kk
!!!SMS-shelfmark: Kk.I.387
!!!SMS-shelfwork: 012 W
!!!SMS-variant:
!!!SMS-altvar:
!!!NIFC-rismSourceID: 1001139155
!!!NIFC-islandoraID: pl-kk:16102
!!!URL-pdf-islandora: https://repozytorium.nifc.pl/islandora/object/pl-kk%3A16102/datastream/PDF/view
!!!URL-scan:
!!!ONB-nifc:
!!!AIN: 1 alto 1 empty 1 soprn 1 tenor
!!!key:
**kern	**text	**dynam	**kern	**text	**kern	**text	**kern	**text
*part4	*part4	*part4	*part3	*part3	*part2	*part2	*part1	*part1
*staff4	*staff4	*	*staff3	*staff3	*staff2	*staff2	*staff1	*staff1
*Iempty	*	*	*Itenor	*	*Ialto	*	*Isoprn	*
*I"Baſso.	*	*	*I"Tenore.	*	*I"Alto.	*	*I"Soprano.	*
*I'B	*	*	*I'T	*	*I'A	*	*I'S	*
*clefF4	*	*	*clefC4	*	*clefC3	*	*clefC1	*
*k[b-e-]	*	*	*k[b-e-]	*	*k[b-e-]	*	*k[b-e-]	*
*B-:	*	*	*B-:	*	*B-:	*	*B-:	*
*M2/4	*	*	*M2/4	*	*M2/4	*	*M2/4	*
=1	=1	=1	=1	=1	=1	=1	=1	=1
*2\right	*	*	*2\right	*	*2\right	*	*2\right	*
!LO:TX:t=P:problem=all\right&colon; global	!	!	!LO:TX:t=P:problem=all\right&colon; global	!	!LO:TX:t=P:problem=all\right&colon; global	!	!LO:TX:t=P:problem=all\right&colon; global	!
!	!	!	!	!	!	!	!LO:TX:t=P:problem= w źródle znaki przykluczowe&colon; b-, ee-	!
!LO:TX:i:a:t=No 12.	!	!	!LO:TX:i:a:t=No 12.	!	!LO:TX:i:a:t=No 12	!	!LO:TX:i:a:t=No 12	!
!LO:TX:a:t=P:problem= napis "No 12." przed kluczem	!	!	!LO:TX:a:t=P:problem= napis "No 12." przed kluczem	!	!LO:TX:a:t=P:problem= napis "No 12" przed kluczem	!	!LO:TX:a:t=P:problem= napis "No 12" przed kluczem	!
8.B-\L	De-	.	8.d\L	De-	4f\	De-	8.b-\L	De-
16c\Jk	.	.	16e-\Jk	.	.	.	16a\Jk	.
8c\	-us	.	8e-\	-us	8f\	-us,	8a\	-us
8r	.	.	8r	.	8r	.	8r	.
=2	=2	=2	=2	=2	=2	=2	=2	=2
8.A\L	me-	.	8.e-\L	De-	4f\	me-	8.cc\L	me-
16B-\Jk	.	.	16d\Jk	.	.	.	16b-\Jk	.
8B-\	-us	.	8d\	-us	8f\	-us,	8b-\	-us,
8r	.	.	8r	.	8r	.	8r	.
=3	=3	=3	=3	=3	=3	=3	=3	=3
2A\	me-	.	2c\	me-	2f\	me-	4.ff\	me-
.	.	.	.	.	.	.	8ee-\	.
=4	=4	=4	=4	=4	=4	=4	=4	=4
4B-\	-us,	.	4B-\	-us,	4f\	-us,	4dd\	-us,
4r	.	.	4r	.	4r	.	4r	.
=5	=5	=5	=5	=5	=5	=5	=5	=5
!LO:TX:a:t=3.	!	!	!	!	!	!	!	!
!LO:N:vis=0	!	!	!	!	!	!	!	!
1r	.	.	2e-\	ex-	2g\	ex-	4.cc\	e-
.	.	.	.	.	.	.	8b-\	.
=6	=6	=6	=6	=6	=6	=6	=6	=6
.	.	.	8e-\L	-au-	4f\	-au-	8a\L	-xau-
.	.	.	8d\J	.	.	.	8b-\J	.
.	.	.	8c\	-di	8a\	-di	8cc\	-di
.	.	.	8B-\	o-	8b-\	o-	8dd\	o-
!	!	!	!LO:LB:g=original	!	!	!	!LO:LB:g=original	!
=7	=7	=7	=7	=7	=7	=7	=7	=7
2r	.	.	4f\	-ra-	4b-\	-ra-	4dd\	-ra-
.	.	.	4F/	-ti-	4a\	-ti-	4cc\	-ti-
!	!	!	!	!	!LO:LB:g=original	!	!	!
=8	=8	=8	=8	=8	=8	=8	=8	=8
4.E-\	O-	.	4.c\	-o-	4.f\	-o-	4.a\	-o-
8D\	.	.	8d\	-nem	8f\	-nem	8b-\	-nem
!LO:LB:g=original	!	!	!	!	!	!	!	!
=9	=9	=9	=9	=9	=9	=9	=9	=9
8C/	-ra-	.	8A\L	o-	4f\	o-	8cc\L	o-
8BB-/	-ti-	.	8B-\J	.	.	.	8dd\J	.
8AA/	-o-	.	8c\	-ra-	8f\	-ra-	8ff\	-ra-
8AA/	-nem	.	8c\	-ti-	8f\	-ti-	8ee-\	-ti-
=10	=10	=10	=10	=10	=10	=10	=10	=10
4BB-/	me-	.	4c\	-o-	4f\	-o-	4ee-\	-o-
4BB-/	-am,	.	4B-\	-nem	4f\	-nem	4dd\	-nem
=11	=11	=11	=11	=11	=11	=11	=11	=11
4.G\	O-	.	4.B-\	me-	4.e-\	me-	4.ee-\	me-
8F\	.	.	8B-\	-am	8f\	-um,	8dd\	-am
=12	=12	=12	=12	=12	=12	=12	=12	=12
8E-\	-ra-	.	8B-\L	o-	4g\	o-	8cc\L	o-
8BBn/	-ti-	.	8d\J	.	.	.	8gg\J	.
8C/	-o-	.	8e-\	-ra-	8g\	-ra-	8ee-\	-ra-
8E-\	-nem	.	8e-\	-ti-	8g\	-ti-	8cc\	-ti-
!	!	!	!	!	!	!	!LO:LB:g=original	!
=13	=13	=13	=13	=13	=13	=13	=13	=13
4F\	me-	.	4d\	-o-	4.f\	-o-	4.b-\	-o-
4FF/	.	.	4A\	-nem	.	.	.	.
.	.	.	.	.	.	.	8qdd/	.
.	.	.	.	.	8e-\	.	8cc\	.
!	!	!	!LO:LB:g=original	!	!	!	!	!
=14	=14	=14	=14	=14	=14	=14	=14	=14
4BB-/	-am	.	4B-\	meam	4d\	-nem,	4b-\	-nem
4r	.	.	4r	.	4r	.	4r	.
!	!	!	!	!	!LO:LB:g=original	!	!	!
=15	=15	=15	=15	=15	=15	=15	=15	=15
8.B-\L	De-	.	8.d\L	De-	4f\	De-	8.b-\L	De-
16c\Jk	.	.	16e-\Jk	.	.	.	16a\Jk	.
8c\	-us	.	8e-\	-us	8f\	-us	8a\	-us
8r	.	.	8r	.	8r	.	8r	.
!LO:LB:g=original	!	!	!	!	!	!	!	!
=16	=16	=16	=16	=16	=16	=16	=16	=16
8.A\L	De-	.	8.e-\L	De-	4f\	me-	8.cc\L	me-
16B-\Jk	.	.	16d\Jk	.	.	.	16b-\Jk	.
8B-\	-us	.	8d\	-us	8f\	-us	8b-\	-us
8r	.	.	8r	.	8r	.	8r	.
=17	=17	=17	=17	=17	=17	=17	=17	=17
2F\	.	.	2c\	me-	2e-\	me-	4ff\	me-
.	.	.	.	.	.	.	8.a\L	.
.	.	.	.	.	.	.	16b-\Jk	.
=18	=18	=18	=18	=18	=18	=18	=18	=18
4BB-/	.	.	4B-\	-us,	4d\	-us,	4b-\	-us,
!	!	!	!LO:TX:i:a:t=Volti Subitto.	!	!LO:TX:i:a:t=Volti Subitto	!	!LO:TX:i:a:t=Volti Subitto	!
!LO:TX:a:t=P:problem=napis za kreską na pięciolinii	!	!	!LO:TX:a:t=P:problem=napis za kreską na pięciolinii	!	!LO:TX:a:t=P:problem=napis za kreską na pięciolinii	!	!LO:TX:a:t=P:problem=napis za kreską na pięciolinii	!
!LO:TX:i:a:t=Volti Subitto.	!	!	!	!	!	!	!	!
4r	.	.	4r	.	4r	.	4r	.
!LO:PB:g=original	!	!	!LO:PB:g=original	!	!LO:PB:g=original	!	!LO:PB:g=original	!
=19||	=19||	=19||	=19||	=19||	=19||	=19||	=19||	=19||
*k[b-e-a-]	*	*	*k[b-e-a-]	*	*k[b-e-a-]	*	*k[b-e-a-]	*
4.E-\	Qui-	.	4.e-\	Qui-	4.g\	Qui-	4.b-\	Qui-
8E-\	-a	.	8B-\	-a	8g\	-a	8ee-\	-a
=20	=20	=20	=20	=20	=20	=20	=20	=20
4F\	ad	.	4B-\	ad	4a-\	ad	4dd\	ad
8D\	te	.	8B-\	te	8a-\	te	8ff\	te
8E-\	cla-	.	8B-\	cla-	8g\	cla-	8ee-\	cla-
=21	=21	=21	=21	=21	=21	=21	=21	=21
8F\	-ma-	.	8B-\	-ma-	8a-\	-ma-	8ee-\	-ma-
8F\	-vi	.	8B-\	-vi	8a-\	-vi,	8dd\	-vi,
4r	.	.	4r	.	4r	.	4r	.
=22	=22	=22	=22	=22	=22	=22	=22	=22
4.F\	qui-	.	4.B-\	qui-	4.a-\	qui-	4.dd\	qui-
8F\	-a	.	8B-\	-a	8a-\	-a	8dd\	-a
=23	=23	=23	=23	=23	=23	=23	=23	=23
4G\	ad	.	4B-\	ad	4g\	ad	4ee-\	ad
!	!LO:SIC:s=te	!	!	!	!	!	!	!
8D\	to	.	8B-\	te	8b-\	te	8ff\	te
8D\	cla-	.	8B-\	cla-	8b-\	cla-	8ff\	cla-
=24	=24	=24	=24	=24	=24	=24	=24	=24
8E-\	-ma-	.	8B-\	-ma-	8b-\	-ma-	8gg\	-ma-
8E-\	-vi	.	8B-\	-vi	8b-\	-vi	8gg\	-vi
4r	.	.	4r	.	4r	.	4r	.
!LO:LB:g=original	!	!	!	!	!LO:LB:g=original	!	!	!
=25	=25	=25	=25	=25	=25	=25	=25	=25
4.F\	qui-	.	4.e-\	qui-	4.f\	qui-	4.an\	qui-
8F\	-a	.	8e-\	-a	8f\	-a	8a\	-a
!	!	!	!LO:LB:g=original	!	!	!	!LO:LB:g=original	!
=26	=26	=26	=26	=26	=26	=26	=26	=26
4F\	ad	.	8d\L	ad	8f\L	ad	8b-\L	ad
.	.	.	8B-\J	.	8b-\J	.	8dd\J	.
8F\	te	.	8An\	te	8cc\	te	8ff\	te
8F\	cla-	.	8c\	cla-	8an\	cla-	8ee-\	cla-
=27	=27	=27	=27	=27	=27	=27	=27	=27
8B-\	-ma-	.	8B-\	-ma-	8f\	-ma-	8ee-\	-ma-
8BB-/	-vi	.	8B-\	-vi	8f\	-vi,	8dd\	-vi
4r	.	.	4r	.	4r	.	4r	.
=28	=28	=28	=28	=28	=28	=28	=28	=28
4.G\	qui-	.	4.f\	qui-	4.g\	qui-	4.bn\	qui-
8G\	-a	.	8f\	-a	8g\	-a	8b\	-a
=29	=29	=29	=29	=29	=29	=29	=29	=29
4G\	ad	.	8e-\L	ad	8g\L	ad	8cc\L	ad
.	.	.	8c\J	.	8cc\J	.	8ee-\J	.
8G\	te	.	8Bn\	te	8dd\	te	8gg\	te
8G\	cla-	.	8d\	cla-	8bn\	cla-	8ff\	cla-
=30	=30	=30	=30	=30	=30	=30	=30	=30
8c\	-ma-	.	8c\	-ma-	8g\	-ma-	8ee-\	-ma-
8C/	-vi	.	8c\	-vi	8g\	-vi	8ee-\	-vi
4r	.	.	4r	.	4r	.	4r	.
!	!	!	!	!	!LO:LB:g=original	!	!	!
=31	=31	=31	=31	=31	=31	=31	=31	=31
4.An\	to-	.	4.c\	to-	4.f\	to-	4.ee-\	to-
8A\	-ta	.	8c\	-ta	8f\	-ta	8ee-\	-ta
!LO:LB:g=original	!	!	!LO:LB:g=original	!	!	!	!	!
=32	=32	=32	=32	=32	=32	=32	=32	=32
8B-\L	di-	.	4B-\	di-	4f\	di-	4dd\	di-
8A-X\J	.	.	.	.	.	.	.	.
8G\	-e	.	8B-\	-e	8g\	-e	8ee-\	-e
8D\	ac	.	8B-\	ac	8b-X\	ac	8ff\	ad
!	!	!	!	!	!	!	!LO:LB:g=original	!
=33	=33	=33	=33	=33	=33	=33	=33	=33
8E-\	noc-	.	8B-\	noc-	8b-\	noc-	8gg\	noc-
8G\	-te	.	8B-\	-te,	8g\	-te,	8ee-\	-te,
4r	.	.	4r	.	4r	.	4r	.
=34	=34	=34	=34	=34	=34	=34	=34	=34
4A-\	ad	.	4e-\	ad	4cc\	ad	4ee-\	ad
8A-\	te	.	8e-\	te	8b-\	te	8dd\	te
8A-\	cla-	.	8e-\	cla-	8a-X\	cla-	8cc\	cla-
=35	=35	=35	=35	=35	=35	=35	=35	=35
8B-\	-ma-	.	8e-\	-ma-	8g\	-ma-	8b-\	-ma-
8B-\	-vi	.	8e-\	-vi	8g\	-vi	8b-\	-vi
8c\	De-	.	8e-\	De-	8f#X\	De-	8an\	De-
8c\	-us	.	8e-\	-us	8f#\	-us	8a\	-us
!	!	!	!	!	!LO:LB:g=original	!	!	!
=36	=36	=36	=36	=36	=36	=36	=36	=36
4B-\	me-	.	4e-\	me-	4g\	me-	4.b-\	me-
4BB-/	.	.	4d\	.	4fn\	.	.	.
.	.	.	.	.	.	.	16a-X\LL	.
.	.	.	.	.	.	.	16f\JJ	.
=37	=37	=37	=37	=37	=37	=37	=37	=37
4E-\	-us,	.	4e-\	-us,	4g\	-us.	4e-X/	-us,
4r	.	.	4r	.	4r	.	4r	.
!LO:LB:g=original	!	!	!LO:LB:g=original	!	!	!	!LO:LB:g=original	!
=38||	=38||	=38||	=38||	=38||	=38||	=38||	=38||	=38||
*k[]	*	*	*k[]	*	*k[]	*	*k[]	*
!	!	!	!	!	!	!	!LO:TX:t=P:kasowniki:problem= b-, ee-, a-	!
!	!	!	!	!	!	!	!LO:TX:t=P:problem=skreślony takt przed tym taktem	!
2C/	Ve-	.	4.G/	Ve-	2e\	Ve-	4.cc\	Ve-
.	.	.	8c\	.	.	.	8g\	.
=39	=39	=39	=39	=39	=39	=39	=39	=39
8c\	-ni-	.	8c\	-ni-	8g\	-ni-	8ee\	-ni-
8c\	-te	.	8e\	-te	8g\	-te	8cc\	-te
8G\	a-	.	8d\	a-	8g\	a-	8b\	a-
8G\	-do-	.	8f\	-do-	8g\	-do-	8dd\	-do-
=40	=40	=40	=40	=40	=40	=40	=40	=40
8c\	-re-	.	8e\	-re-	8g\	-re-	8dd\	-re-
8C/	-mus,	.	8e\	-mus,	8g\	-mus,	8cc\	-mus
4r	.	.	4r	.	4r	.	4r	.
=41	=41	=41	=41	=41	=41	=41	=41	=41
4.B\	a-	.	4.d\	a-	4.f\	a-	4.g\	a-
8B\	-do-	.	8d\	-do-	8f\	-do-	8g\	-do-
!	!	!	!	!	!LO:LB:g=original	!	!	!
=42	=42	=42	=42	=42	=42	=42	=42	=42
8c\	-re-	.	8c\	-re-	8e\	-re-	8g\	-re-
8C/	-mus	.	8g\	-mus	8e\	-mus	8ee\	-mus
8F\	Do-	.	8f\	Do-	8a\	Do-	8dd\	Do-
8F#X\	-mi-	.	8e\	-mi-	8a\	-mi-	8cc\	-mi-
=43	=43	=43	=43	=43	=43	=43	=43	=43
4G\	-num	.	4d\	-num	4g\	-num,	4b\	-num
4r	.	.	4r	.	4r	.	4r	.
!LO:LB:g=original	!	!	!LO:LB:g=original	!	!	!	!LO:LB:g=original	!
=44	=44	=44	=44	=44	=44	=44	=44	=44
4F#X\	a-	.	4c\	a-	4a\	a-	4dd\	a-
4G\	-do-	.	4B\	-do-	4g\	-do-	4dd\	-do-
=45	=45	=45	=45	=45	=45	=45	=45	=45
4A\	-re-	.	4c\	-re-	4f#X\	-re-	4.dd\	-re-
4B\	-mus	.	4d\	-mus	4g\	-mus	.	.
.	.	.	.	.	.	.	8dd\	-mus
=46	=46	=46	=46	=46	=46	=46	=46	=46
2c\	De-	.	4.f#X\	De-	2a\	De-	4dd\	De-
.	.	.	.	.	.	.	8ee\L	.
.	.	.	8f#\	-um	.	.	8dd\J	.
=47	=47	=47	=47	=47	=47	=47	=47	=47
4B\	-um	.	8g\	De-	4g\	-um,	4dd\	-um,
.	.	.	8g\	-um	.	.	.	.
4r	.	.	4r	.	4r	.	4r	.
=48	=48	=48	=48	=48	=48	=48	=48	=48
4F#X\	qui-	.	4c\	qui-	4a\	qui-	4dd\	qui-
4G\	-a	.	4B\	-a	4g\	-a	4dd\	-a
!	!	!	!	!	!LO:LB:g=original	!	!	!
=49	=49	=49	=49	=49	=49	=49	=49	=49
4A\	ip-	.	4c\	ip-	4f#X\	ip-	4dd\	ip-
4B\	-se	.	4d\	-se	4g\	-se	4dd\	-se
=50	=50	=50	=50	=50	=50	=50	=50	=50
4.c\	ip-	.	4.f#X\	ip-	4.a\	ip-	4dd\	ip-
.	.	.	.	.	.	.	8ee\L	-se
8c\	-se	.	8f#\	-se	8a\	-se	8dd\J	.
=51	=51	=51	=51	=51	=51	=51	=51	=51
4B\	est,	.	4g\	est,	4g\	est,	4dd\	est,
4r	.	.	4r	.	4r	.	4r	.
!LO:LB:g=original	!	!	!LO:LB:g=original	!	!	!	!LO:LB:g=original	!
=52	=52	=52	=52	=52	=52	=52	=52	=52
4Fn\	De-	.	4g\	De-	4b\	De-	4dd\	De-
8F\	-us	.	8d\	-us	8g\	-us,	8b\	-us,
8r	.	.	8r	.	8r	.	8r	.
=53	=53	=53	=53	=53	=53	=53	=53	=53
8E\	ip-	.	8c\	ip-	8g\	ip-	8cc\	ip-
8E\	-se	.	8c\	-se	8g\	-se	8cc\	-se
8D\	De-	.	8B\	De-	8g\	De-	8dd\	De-
8C\	-us	.	8c\	-us	8g\	-us	8ee\	-us
=54	=54	=54	=54	=54	=54	=54	=54	=54
4F\	nos-	.	4c\	nos-	4a\	nos-	8.ee\L	no-
.	.	.	.	.	.	.	16a\Jk	.
4F\	-ter	.	4c\	-ter,	4a\	-ter,	4a\	-ster
=55	=55	=55	=55	=55	=55	=55	=55	=55
4D\	ip-	.	4d\	ip-	4a\	ip-	4ff\	ip-
.	.	.	.	.	.	.	8qee/	.
4F\	-se	.	4d\	-se	4a\	-se	4dd\	-se
!	!	!	!	!	!LO:LB:g=original	!	!	!
=56	=56	=56	=56	=56	=56	=56	=56	=56
.	.	.	.	.	.	.	8qcc/	.
(>4G\	est	.	(>4d\	est	(>4f\	est,	(>4b\	est,
4A\)	.	.	4c\)	.	8e\)	.	4cc\)	.
.	.	.	.	.	8r	.	.	.
=57	=57	=57	=57	=57	=57	=57	=57	=57
4r	.	.	4r	.	4r	.	4r	.
!LO:TX:a:t=P:problem=oznaczenie dynamiczne na pięciolinii przed nutą	!	!LO:DY:b:rj	!	!	!	!	!	!
8F\	De-	f	8c\	De-	8a\	De-	8a\	De-
8F\	-us	.	8f\	-us	8a\	-us	8dd\	-us
!LO:LB:g=original	!	!	!	!	!	!	!	!
=58	=58	=58	=58	=58	=58	=58	=58	=58
4G\	no-	.	4e\	no-	4.g\	no-	4cc\	no-
4GG/	.	.	4d\	.	.	.	4b\	.
.	.	.	.	.	8f\	.	.	.
!	!	!	!	!	!	!	!LO:LB:g=original	!
=59	=59	=59	=59	=59	=59	=59	=59	=59
4C/	-ster.	.	4c\	-ster,	4e\	-ster,	4cc\	-ster
4r	.	.	4r	.	4r	.	4r	.
!	!	!	!LO:LB:g=original	!	!	!	!	!
=60||	=60||	=60||	=60||	=60||	=60||	=60||	=60||	=60||
*k[b-]	*	*	*k[b-]	*	*k[b-]	*	*k[b-]	*
4F\	Can-	.	4f\	Can-	8a\L	Can-	8cc\L	Can-
.	.	.	.	.	8f\J	.	8a\J	.
8F\	-ta-	.	8f\	-ta-	8g\	-ta-	8b-\L	-ta-
8F\	-te	.	8f\	-te	8b-X\	-te	8dd\J	-te
=61	=61	=61	=61	=61	=61	=61	=61	=61
4F\	De-	.	4f\	De-	8b-\L	De-	8dd\L	De-
.	.	.	.	.	8a\J	.	8cc\J	.
4F\	-o	.	4F/	-o	4a\	-o	4cc\	-o
!	!	!	!	!	!LO:LB:g=original	!	!	!
=62	=62	=62	=62	=62	=62	=62	=62	=62
4F\	can-	.	4c\	can-	4a\	Can-	8cc\L	Can-
.	.	.	.	.	.	.	8dd\J	.
8F\	-ti-	.	8c\	-ti-	8a\	-ti-	8ee\L	-ti-
8F\	-cum	.	8c\	-cum	8a\	-cum	8ff\J	-cum
=63	=63	=63	=63	=63	=63	=63	=63	=63
8G\	no-	.	8c\	no-	8b-X\	no-	4.ff\	no-
8G\	-vum	.	8c\	-vum	8b-\	-vum	.	.
4r	.	.	4r	.	4r	.	.	.
.	.	.	.	.	.	.	8ee\	-vum
=64	=64	=64	=64	=64	=64	=64	=64	=64
4.A\	De-	.	4.c\	De-	4.f\	De-	8ee\L	De-
.	.	.	.	.	.	.	8dd\J	.
.	.	.	.	.	.	.	4cc\	-o
8A\	-o	.	8c\	-o	8f\	-o	.	.
!LO:LB:g=original	!	!	!	!	!	!	!LO:LB:g=original	!
=65	=65	=65	=65	=65	=65	=65	=65	=65
8G\L	De-	.	4B-\	nos-	4.f\	De-	4b-X\	no-
8E\J	.	.	.	.	.	.	.	.
8F\L	-o	.	4c\	-tro	.	.	4a\	.
8A\J	.	.	.	.	8f#X\	-o	.	.
=66	=66	=66	=66	=66	=66	=66	=66	=66
8c\	nos-	.	8d\L	De-	4g\	no-	4g/	-stro
8C/	-tro.	.	8c\J	-o	.	.	.	.
4r	.	.	4c\	no-	4fn\	.	4r	.
!	!	!	!LO:LB:g=original	!	!	!	!	!
=67	=67	=67	=67	=67	=67	=67	=67	=67
!LO:TX:t=P:pion:problem	!	!	!	!	!	!	!LO:TX:t=P:pion:problem	!
2ryy	.	.	4c\	-stro,	4e\	-stro,	2ryy	.
.	.	.	4r	.	4r	.	.	.
=68	=68	=68	=68	=68	=68	=68	=68	=68
4C/	Can-	.	4c\	Can-	8e\L	Can-	8cc\L	Can-
.	.	.	.	.	8g\J	.	8ee\J	.
8G\	-ta-	.	8Bn\	-ta-	8f\	-ta-	8dd\	-ta-
8G\	-te	.	8d\	-te	8d\	-te	8bn\	-te
!	!	!	!	!	!LO:LB:g=original	!	!	!
=69	=69	=69	=69	=69	=69	=69	=69	=69
4c\	De-	.	4c\	De-	4e\	De-	8cc\L	De-
.	.	.	.	.	.	.	8g\J	.
4c\	-o.	.	8e\L	-o	4g\	-o	8cc\L	-o
.	.	.	8c\J	.	.	.	8ee\J	.
=70	=70	=70	=70	=70	=70	=70	=70	=70
2Bn\	no-	.	4.d\	no-	2g\	no-	4.gg\	no-
.	.	.	8d\	.	.	.	8ff\	.
=71	=71	=71	=71	=71	=71	=71	=71	=71
4c\	-stro	.	4c\	-stro,	4g\	-stro,	4ee\	-stro
4r	.	.	4r	.	4r	.	4r	.
=72	=72	=72	=72	=72	=72	=72	=72	=72
4C/	Laus	.	8e\L	Laus	4g\	Laus	8cc\L	Laus
.	.	.	8g\J	.	.	.	8ee\J	.
8G\	e-	.	8f\	e-	8g\	e-	8dd\	e-
8G\	-jus	.	8d\	-ius	8g\	-jus	8bn\	-jus
!LO:LB:g=original	!	!	!	!	!	!	!LO:LB:g=original	!
=73	=73	=73	=73	=73	=73	=73	=73	=73
4c\	in	.	4.e\	in	4g\	in	8cc\L	in
.	.	.	.	.	.	.	8g\J	.
4c\	Ec-	.	.	.	4g\	Ec-	8cc\L	Ec-
.	.	.	8c\	Ec-	.	.	8ee\J	.
!	!	!	!LO:LB:g=original	!	!	!	!	!
=74	=74	=74	=74	=74	=74	=74	=74	=74
4.Bn\	-cle-	.	4.d\	-cle-	4.g\	-cle-	4.gg\	-cle-
8B\	-si-	.	8d\	-si-	8g\	-si-	8ff\	-si-
=75	=75	=75	=75	=75	=75	=75	=75	=75
4c\	-a,	.	4c\	-a	4g\	-a,	4ee\	-a
4r	.	.	4r	.	4r	.	4r	.
=76	=76	=76	=76	=76	=76	=76	=76	=76
4F#X\	in	.	4.d\	in	4.a\	in	4.dd\	in
4F#\	Ec-	.	.	.	.	.	.	.
.	.	.	8d\	Ec-	8a\	Ec-	8cc\	Ec-
=77	=77	=77	=77	=77	=77	=77	=77	=77
4.G\	-cle-	.	4.d\	-cle-	4.g\	-cle-	8cc\L	-cle-
.	.	.	.	.	.	.	8b-X\J	.
.	.	.	.	.	.	.	8b-\L	-si-
8Fn\	-si-	.	8d\	-si-	8g\	-si-	8bn\J	.
!	!	!	!	!	!LO:LB:g=original	!	!	!
=78	=78	=78	=78	=78	=78	=78	=78	=78
4E\	-a	.	4.c\	-a	4g\	-a,	8cc\L	-a
.	.	.	.	.	.	.	8dd\J	.
4E\	san-	.	.	.	4g\	San-	8cc\L	San-
.	.	.	8c\	San-	.	.	8b-X\J	.
=79	=79	=79	=79	=79	=79	=79	=79	=79
4F\	-cto-	.	4c\	-cto-	4g\	-cto-	4b-\	-cto-
4F\	-rum	.	4c\	-rum	4f\	-rum	4a\	-rum
!LO:LB:g=original	!	!	!	!	!	!	!LO:LB:g=original	!
=80	=80	=80	=80	=80	=80	=80	=80	=80
4A\	in	.	4c\	in	4f\	in	8cc\L	in
.	.	.	.	.	.	.	8dd\J	.
4A\	Ec-	.	4c\	Ec-	4f\	Ec-	8ee\L	Ec-
.	.	.	.	.	.	.	8ff\J	.
=81	=81	=81	=81	=81	=81	=81	=81	=81
4B-X\	-cle-	.	8B-X\L	-cle-	4f\	-cle-	8dd\L	-cle-
.	.	.	8d\J	.	.	.	8ff\J	.
4B-\	-si-	.	8c\L	-si-	4f\	-si-	8ee\L	-si-
.	.	.	8B-\J	.	.	.	8dd\J	.
!	!	!	!LO:LB:g=original	!	!	!	!	!
=82	=82	=82	=82	=82	=82	=82	=82	=82
4A\	-a	.	4c\	-a	4.f\	-a	8cc\L	-a
.	.	.	.	.	.	.	8ff\J	.
4B-\	san-	.	8B-\L	San-	.	.	8dd\L	San-
.	.	.	8d\J	.	8g\	San-	8b-X\J	.
=83	=83	=83	=83	=83	=83	=83	=83	=83
4c\	-cto-	.	4.c\	-cto-	4f\	-cto-	4a/	-cto-
4C/	.	.	.	.	4e\	.	4g/	.
.	.	.	8B-\	.	.	.	.	.
=84	=84	=84	=84	=84	=84	=84	=84	=84
4F\	-rum	.	4A\	-rum	4f\	-rum,	4f/	-rum.
4r	.	.	4r	.	4r	.	4r	.
*	*	*	*Xkcancel	*	*Xkcancel	*	*	*
=85||	=85||	=85||	=85||	=85||	=85	=85||	=85||	=85||
*k[b-e-]	*	*	*k[b-e-]	*	*k[b-e-]	*	*k[b-e-]	*
!	!	!	!LO:TX:t=P:problem=w źródle brak podwójnej kreski i zmiany toancji	!	!LO:TX:t=P:problem=w źródle brak podwójnej kreski i zmiany toancji	!	!LO:TX:a:t=P:znaki:problem= b-, ee-	!
!	!	!	!LO:TX:a:t=3.	!	!	!	!	!
!	!	!	!LO:N:vis=0	!	!	!	!	!
4.F\	Can-	.	1r	.	2f\	Can-	(>4.a\	Can-
8G\	.	.	.	.	.	.	8b-\)	.
=86	=86	=86	=86	=86	=86	=86	=86	=86
8A\	-ta-	.	.	.	8f\	-ta-	8cc\	-ta-
8G\	-te	.	.	.	8f\	-te	8b-\	-te
!LO:LB:g=original	!	!	!	!	!LO:LB:g=original	!	!LO:LB:g=original	!
8A\	o	.	.	.	8f\	o	8cc\	o
8B-\	can-	.	.	.	8f\	can-	8dd\	can-
=87	=87	=87	=87	=87	=87	=87	=87	=87
4c\	-ta-	.	2r	.	4f\	-ta-	8.ee-X\L	-ta-
.	.	.	.	.	.	.	16cc\Jk	.
4A\	-te	.	.	.	4f\	-te	4cc\	-te
=88	=88	=88	=88	=88	=88	=88	=88	=88
!LO:TX:a:t=3.	!	!	!	!	!	!	!	!
!LO:N:vis=0	!	!	!	!	!	!	!	!
1r	.	.	4.d\	Can-	2f\	can-	4.b-\	can-
.	.	.	8e-X\	.	.	.	8a\	.
=89	=89	=89	=89	=89	=89	=89	=89	=89
.	.	.	8d\	-ta-	8f\	-ta-	8b-\	-ta-
.	.	.	8A\	-te	8f\	-te	8cc\	-te
.	.	.	8B-\	o	8f\	o	8dd\	o
.	.	.	8c\	can-	8f\	can-	8ee-\	can-
=90	=90	=90	=90	=90	=90	=90	=90	=90
2r	.	.	4d\	-ta-	4f\	-ta-	4ff\	-ta-
.	.	.	4B-\	-te	4f\	-te	4dd\	-te
!	!	!	!LO:LB:g=original	!	!	!	!	!
=91	=91	=91	=91	=91	=91	=91	=91	=91
4.G-X\	De-	.	4.B-X\	De-	4.e-\	De-	4.ee-\	De-
8G-\	-o	.	8B-\	-o	8e-\	-o	8cc\	-o
=92	=92	=92	=92	=92	=92	=92	=92	=92
4F\	nos-	.	4c\	nos-	4e-\	nos-	8b-\L	no-
.	.	.	.	.	.	.	8a\J	.
4F\	-tro	.	4c\	-tro	4e-\	-tro	4a\	-stro
!	!	!	!	!	!	!	!LO:LB:g=original	!
=93	=93	=93	=93	=93	=93	=93	=93	=93
4.G-X\	De-	.	4.B-\	De-	4.e-\	De-	4.ee-\	De-
8G-\	-o	.	8B-\	-o	8e-\	-o	8cc\	-o
!	!	!	!	!	!LO:LB:g=original	!	!	!
=94	=94	=94	=94	=94	=94	=94	=94	=94
4F\	nos-	.	4c\	nos-	4e-\	nos-	8b-\L	no-
.	.	.	.	.	.	.	8a\J	.
4F;>\	-tro.	.	4c;>\	-tro	4e-;>\	-tro,	4a;>\	-stro,
!LO:LB:g=original	!	!	!	!	!	!	!	!
=95||	=95||	=95||	=95||	=95||	=95||	=95||	=95||	=95||
8.B-\L	De-	.	8.d\L	De-	4f\	De-	8.b-\L	De-
16c\Jk	.	.	16e-X\Jk	.	.	.	16a\Jk	.
8c\	-us	.	8e-\	-us	8f\	-us	8a\	-us
8r	.	.	8r	.	8r	.	8r	.
=96	=96	=96	=96	=96	=96	=96	=96	=96
8.A\L	De-	.	8.e-X\L	De-	4f\	De-	8.cc\L	De-
16B-\Jk	.	.	16d\Jk	.	.	.	16b-\Jk	.
8B-\	-us,	.	8d\	-us	8f\	-us	8b-\	-us
8r	.	.	8r	.	8r	.	8r	.
!	!	!	!LO:LB:g=original	!	!	!	!	!
=97	=97	=97	=97	=97	=97	=97	=97	=97
2F\	me-	.	2c\	me-	2e-X\	me-	4ff\	me-
.	.	.	.	.	.	.	8.a\L	.
.	.	.	.	.	.	.	16b-\Jk	.
=98	=98	=98	=98	=98	=98	=98	=98	=98
4BB-/	-us.	.	4B-\	-us.	4d\	-us.	4b-\	-us.
4r	.	.	4r	.	4r	.	4r	.
==	==	==	==	==	==	==	==	==
*-	*-	*-	*-	*-	*-	*-	*-	*-
!!!system-decoration: [(s1,s2,s3,s4)]
!!!RDF**kern: > = above
!!!RDF**kern: < = below
!!!EED: Mateusz Mrugas
!!!EEV: 2021-01-17
!!!ENC: Andrzej Gręziak
!!!END: 2020-01-13
